src/assets/svg/icons/star-word.svg

<svg width="35" height="38" viewBox="0 0 35 38" fill="none" xmlns="http://www.w3.org/2000/svg">
<circle cx="17.5" cy="20.5" r="17.5" fill="#FFEEC1"/>
<path d="M28.75 15.0625L21.9062 14.0781L18.8125 7.84375C18.2969 6.76562 16.7031 6.71875 16.1406 7.84375L13.0938 14.0781L6.20312 15.0625C4.98438 15.25 4.51562 16.75 5.40625 17.6406L10.3281 22.4688L9.15625 29.2656C8.96875 30.4844 10.2812 31.4219 11.3594 30.8594L17.5 27.625L23.5938 30.8594C24.6719 31.4219 25.9844 30.4844 25.7969 29.2656L24.625 22.4688L29.5469 17.6406C30.4375 16.75 29.9688 15.25 28.75 15.0625ZM22.1875 21.6719L23.3125 28.1406L17.5 25.0938L11.6406 28.1406L12.7656 21.6719L8.03125 17.0781L14.5469 16.1406L17.5 10.2344L20.4062 16.1406L26.9219 17.0781L22.1875 21.6719Z" fill="#F95959"/>
</svg>

<svg width="35" height="38" fill="none" xmlns="http://www.w3.org/2000/svg"><circle cx="17.5" cy="20.5" r="17.5" fill="#FFEEC1"/><path d="m28.75 15.063-6.844-.985-3.093-6.234c-.516-1.078-2.11-1.125-2.672 0l-3.047 6.234-6.89.985c-1.22.187-1.688 1.687-.798 2.578l4.922 4.828-1.172 6.797c-.187 1.218 1.125 2.156 2.203 1.593l6.141-3.234 6.094 3.234c1.078.563 2.39-.375 2.203-1.593l-1.172-6.797 4.922-4.828c.89-.891.422-2.391-.797-2.578zm-6.563 6.609 1.125 6.469-5.812-3.047-5.86 3.047 1.126-6.47-4.735-4.593 6.516-.937 2.953-5.907 2.906 5.907 6.516.937-4.735 4.594z" fill="#F95959"/></svg>
